X: 12826
T: Felix In Paris
R: hornpipe
M: 4/4
K: Gmajor
|:(3cBA|G>BD>G B2 (3ABc|B2 (3def g>dB>G|E>Gc>B c2 (3BAG|F>dA>F D>cB>A|
G2 D>G (3BcB A>c|E>cE>G c>Ec>d|f>ga>g (3fed c>A|1 (3Bcd A>F G2:|2 B>dA>F G>d (3cAF||
|:G>d (3gfe d>BG>^G|A>cE>A e>cA>G|F>DA>F d>A^G>A|G>DB>G D>c (3cBA|
G>B (3DGB B>A^G>A|E>cE>G c2- c>d|f2 (3gag f2 (3cBA|1 (3GAG F2 G2- G>B:|2 (3GAG F2 G2||

